goods.client/src/assets/icons/services/store.svg

<svg width="50" height="50" viewBox="0 0 50 50" fill="none" xmlns="http://www.w3.org/2000/svg">
<g id="Group 1">
<path id="Vector" d="M45.3953 13.4819H4.63098V49.1507H45.3953V13.4819Z" fill="#276041"/>
<path id="Vector_2" d="M7.17874 13.4819H4.63098V49.1507H7.17874V13.4819Z" fill="#276041"/>
<path id="Vector_3" d="M4.63098 23.673C6.50706 23.673 8.02805 22.1521 8.02805 20.276H1.23401C1.23401 22.1521 2.75481 23.673 4.63098 23.673Z" fill="#AF462E"/>
<path id="Vector_4" d="M11.4251 23.673C13.3012 23.673 14.8222 22.1521 14.8222 20.276H8.02802C8.02802 22.1521 9.54882 23.673 11.4251 23.673Z" fill="#E56133"/>
<path id="Vector_5" d="M18.2191 23.673C20.0952 23.673 21.6162 22.1521 21.6162 20.276H14.8222C14.8221 22.1521 16.3429 23.673 18.2191 23.673Z" fill="#AF462E"/>
<path id="Vector_6" d="M25.0132 23.673C26.8893 23.673 28.4103 22.1521 28.4103 20.276H21.6162C21.6161 22.1521 23.1369 23.673 25.0132 23.673Z" fill="#E56133"/>
<path id="Vector_7" d="M31.8072 23.673C33.6833 23.673 35.2043 22.1521 35.2043 20.276H28.4102C28.4102 22.1521 29.931 23.673 31.8072 23.673Z" fill="#AF462E"/>
<path id="Vector_8" d="M38.6013 23.673C40.4773 23.673 41.9983 22.1521 41.9983 20.276H35.2043C35.2042 22.1521 36.7251 23.673 38.6013 23.673Z" fill="#E56133"/>
<path id="Vector_9" d="M45.3953 23.673C47.2714 23.673 48.7924 22.1521 48.7924 20.276H41.9984C41.9984 22.1521 43.5192 23.673 45.3953 23.673Z" fill="#AF462E"/>
<path id="Vector_10" d="M5.4803 0.743067H10.5758L8.02805 20.276H1.23401L5.4803 0.743067Z" fill="#AF462E"/>
<path id="Vector_11" d="M10.5758 0.743067H16.5206L14.8221 20.276H8.02802L10.5758 0.743067Z" fill="#E56133"/>
<path id="Vector_12" d="M16.5206 0.743067H21.6161V20.276H14.8221L16.5206 0.743067Z" fill="#AF462E"/>
<path id="Vector_13" d="M28.4098 0.743067H21.6157V20.276H28.4098V0.743067Z" fill="#E56133"/>
<path id="Vector_14" d="M28.4102 0.743067H33.5058L35.2042 20.276H28.4102V0.743067Z" fill="#AF462E"/>
<path id="Vector_15" d="M33.5058 0.743067H39.4505L41.9983 20.276H35.2042L33.5058 0.743067Z" fill="#E56133"/>
<path id="Vector_16" d="M39.4505 0.743067H44.5461L48.7924 20.276H41.9984L39.4505 0.743067Z" fill="#AF462E"/>
<path id="Vector_17" d="M21.6157 26.2208H8.02765V49.1508H21.6157V26.2208Z" fill="#32965D"/>
<path id="Vector_18" d="M10.5754 26.2208H8.02765V49.1508H10.5754V26.2208Z" fill="#32965D"/>
<path id="Vector_19" d="M40.2993 26.2208H26.7112V36.4119H40.2993V26.2208Z" fill="#AFF0E8"/>
<g id="Group">
<path id="Vector_20" d="M37.8582 26.2208L27.6671 36.4119H34.6735L40.2998 30.7855V26.2208H37.8582Z" fill="#74DBC9"/>
<path id="Vector_21" d="M26.7117 26.2208V32.6964L33.1873 26.2208H26.7117Z" fill="#74DBC9"/>
<path id="Vector_22" d="M37.1682 36.4119H40.2998V33.2803L37.1682 36.4119Z" fill="#74DBC9"/>
</g>
<path id="Vector_23" d="M17.3694 39.3843C18.3075 39.3843 19.068 38.6238 19.068 37.6857C19.068 36.7477 18.3075 35.9872 17.3694 35.9872C16.4314 35.9872 15.6709 36.7477 15.6709 37.6857C15.6709 38.6238 16.4314 39.3843 17.3694 39.3843Z" fill="#E56133"/>
<path id="Vector_24" d="M0.437903 20.2818C0.437903 20.2841 0.411438 20.2863 0.411438 20.2885C0.417493 22.3228 1.87081 24.02 3.78165 24.3924V41.5075C3.78165 41.9474 4.1381 42.3037 4.57784 42.3037C5.01759 42.3037 5.37404 41.9474 5.37404 41.5075V24.3925C6.54181 24.1868 7.38761 23.5774 8.00138 22.73C8.76388 23.7826 10.0153 24.4692 11.4116 24.4692C12.8079 24.4692 14.0527 23.7826 14.8153 22.73C15.5778 23.7826 16.8193 24.4692 18.2156 24.4692C19.6119 24.4692 20.8519 23.7826 21.6144 22.73C22.3769 23.7826 23.6159 24.4692 25.0122 24.4692C26.4085 24.4692 27.6472 23.7826 28.4097 22.73C29.1722 23.7826 30.4107 24.4692 31.8069 24.4692C33.2032 24.4692 34.4415 23.7826 35.2041 22.73C35.9666 23.7826 37.205 24.4692 38.6012 24.4692C39.9974 24.4692 41.2092 23.7826 41.9717 22.73C42.5855 23.5773 43.4844 24.1869 44.546 24.3925V27.9195C44.546 28.3594 44.9024 28.7157 45.3422 28.7157C45.782 28.7157 46.1384 28.3594 46.1384 27.9195V24.3925C48.1554 24.0202 49.5555 22.323 49.5616 20.2889C49.5626 20.2278 49.5701 20.1666 49.557 20.1069L45.3174 0.600488C45.2378 0.234473 44.9206 0 44.5461 0H5.48029C5.10577 0 4.78185 0.234473 4.70226 0.600488L0.455969 20.1202C0.442786 20.1772 0.437903 20.2234 0.437903 20.2818ZM4.63097 22.93C3.47443 22.93 2.49181 22.0808 2.1547 21.1253H7.10714C6.77023 22.0807 5.78751 22.93 4.63097 22.93ZM11.4251 22.93C10.2686 22.93 9.28595 22.0808 8.94894 21.1253H13.9014C13.5643 22.0807 12.5816 22.93 11.4251 22.93ZM18.2192 22.93C17.0626 22.93 16.08 22.0808 15.7429 21.1253H20.6953C20.3583 22.0807 19.3756 22.93 18.2192 22.93ZM25.0132 22.93C23.8567 22.93 22.874 22.0808 22.5369 21.1253H27.4894C27.1524 22.0807 26.1696 22.93 25.0132 22.93ZM29.1533 1.59238H32.7758L34.3358 19.5329H29.1533V1.59238ZM31.8072 22.93C30.6507 22.93 29.6681 22.0808 29.3311 21.1253H34.2835C33.9464 22.0807 32.9637 22.93 31.8072 22.93ZM38.6013 22.93C37.4447 22.93 36.4621 22.0808 36.125 21.1253H41.0775C40.7404 22.0807 39.7577 22.93 38.6013 22.93ZM45.3953 22.93C44.2388 22.93 43.2562 22.0808 42.9192 21.1253H47.8716C47.5345 22.0807 46.5519 22.93 45.3953 22.93ZM43.9044 1.59238L47.8045 19.5329H42.6974L40.3573 1.59238H43.9044ZM38.7515 1.59238L41.0915 19.5329H35.9342L34.3741 1.59238H38.7515ZM27.5609 19.5329H22.3593V1.59238H27.5609V19.5329ZM20.7669 19.5329H15.6905L17.2505 1.59238H20.7668V19.5329H20.7669ZM14.0922 19.5329H8.93488L11.2749 1.59238H15.6522L14.0922 19.5329ZM6.12189 1.59238H9.66896L7.32892 19.5329H2.22179L6.12189 1.59238Z" fill="#6B5555"/>
<path id="Vector_25" d="M40.2998 25.4777H26.7117C26.2719 25.4777 25.8625 25.7811 25.8625 26.2208V35.6687H25.0133C24.5735 35.6687 24.2171 36.0251 24.2171 36.4649C24.2171 36.9048 24.5735 37.2611 25.0133 37.2611H41.9984C42.4383 37.2611 42.7946 36.9048 42.7946 36.4649C42.7946 36.0251 42.4383 35.6687 41.9984 35.6687H41.0431V26.2208C41.0429 25.781 40.7395 25.4777 40.2998 25.4777ZM27.4548 35.6687V27.07H39.4506V35.6687H27.4548Z" fill="#6B5555"/>
<path id="Vector_26" d="M17.3698 35.1911C15.9942 35.1911 14.8751 36.3103 14.8751 37.6858C14.8751 39.0614 15.9942 40.1806 17.3698 40.1806C18.7454 40.1806 19.8645 39.0614 19.8645 37.6858C19.8645 36.3102 18.7454 35.1911 17.3698 35.1911ZM17.3698 38.5881C16.8723 38.5881 16.4675 38.1833 16.4675 37.6857C16.4675 37.1882 16.8723 36.7834 17.3698 36.7834C17.8674 36.7834 18.2722 37.1882 18.2722 37.6857C18.2722 38.1833 17.8674 38.5881 17.3698 38.5881Z" fill="#6B5555"/>
<path id="Vector_27" d="M48.7924 48.4076H46.1385V31.3159C46.1385 30.8761 45.7821 30.5197 45.3423 30.5197C44.9025 30.5197 44.5461 30.8761 44.5461 31.3159V48.4076H22.3593V26.2208C22.3593 25.781 22.0559 25.4777 21.6162 25.4777H8.02804C7.58829 25.4777 7.17882 25.7811 7.17882 26.2208V48.4076H5.37413V44.9045C5.37413 44.4646 5.01769 44.1083 4.57794 44.1083C4.1382 44.1083 3.78175 44.4646 3.78175 44.9045V48.4076H1.234C0.79425 48.4076 0.437805 48.764 0.437805 49.2038C0.437805 49.6437 0.79425 50 1.234 50H48.7924C49.2322 50 49.5886 49.6437 49.5886 49.2038C49.5886 48.7641 49.232 48.4076 48.7924 48.4076ZM8.77111 48.4076V27.07H20.7669V48.4076H8.77111Z" fill="#6B5555"/>
</g>
</svg>

<svg xmlns="http://www.w3.org/2000/svg" width="50" height="50" fill="none"><g clip-path="url(#a)"><path fill="#231F20" d="M45.395 13.482H4.631V49.15h40.764z"/><path fill="#231F20" d="M7.179 13.482H4.63V49.15h2.548z"/><path fill="#91030E" d="M4.631 23.673a3.397 3.397 0 0 0 3.397-3.397H1.234a3.397 3.397 0 0 0 3.397 3.397"/><path fill="#D12026" d="M11.425 23.673a3.397 3.397 0 0 0 3.397-3.397H8.028a3.397 3.397 0 0 0 3.397 3.397"/><path fill="#91030E" d="M18.22 23.673a3.397 3.397 0 0 0 3.396-3.397h-6.794a3.397 3.397 0 0 0 3.397 3.397"/><path fill="#D12026" d="M25.013 23.673a3.397 3.397 0 0 0 3.397-3.397h-6.794a3.397 3.397 0 0 0 3.397 3.397"/><path fill="#91030E" d="M31.807 23.673a3.397 3.397 0 0 0 3.397-3.397H28.41a3.397 3.397 0 0 0 3.397 3.397"/><path fill="#D12026" d="M38.601 23.673a3.397 3.397 0 0 0 3.397-3.397h-6.794a3.397 3.397 0 0 0 3.397 3.397"/><path fill="#91030E" d="M45.395 23.673a3.397 3.397 0 0 0 3.397-3.397h-6.794a3.397 3.397 0 0 0 3.397 3.397M5.48.743h5.096L8.028 20.276H1.234z"/><path fill="#D12026" d="M10.576.743h5.945l-1.699 19.533H8.028z"/><path fill="#91030E" d="M16.52.743h5.096v19.533h-6.794z"/><path fill="#D12026" d="M28.41.743h-6.794v19.533h6.794z"/><path fill="#91030E" d="M28.41.743h5.096l1.698 19.533H28.41z"/><path fill="#D12026" d="M33.506.743h5.944l2.548 19.533h-6.794z"/><path fill="#91030E" d="M39.45.743h5.096l4.246 19.533h-6.794z"/><path fill="#6B7280" d="M21.616 26.22H8.028v22.93h13.588z"/><path fill="#6B7280" d="M10.575 26.22H8.028v22.93h2.547z"/><path fill="#AFF0E8" d="M40.3 26.22H26.71v10.192H40.3z"/><path fill="#74DBC9" d="m37.858 26.22-10.19 10.192h7.005l5.627-5.626V26.22zM26.712 26.22v6.476l6.475-6.475zM37.168 36.412H40.3V33.28z"/><path fill="#D12026" d="M17.37 39.384a1.699 1.699 0 1 0 0-3.397 1.699 1.699 0 0 0 0 3.397"/><path fill="#6B5555" d="M.438 20.282c0 .002-.027.004-.027.006a4.194 4.194 0 0 0 3.37 4.104v17.116a.796.796 0 1 0 1.593 0V24.392c1.168-.205 2.014-.815 2.627-1.662a4.21 4.21 0 0 0 3.41 1.74 4.2 4.2 0 0 0 3.404-1.74 4.193 4.193 0 0 0 6.8 0 4.19 4.19 0 0 0 6.795 0 4.19 4.19 0 0 0 3.397 1.74 4.19 4.19 0 0 0 3.397-1.74 4.19 4.19 0 0 0 3.397 1.74c1.396 0 2.608-.687 3.37-1.74a4.15 4.15 0 0 0 2.575 1.662v3.528a.796.796 0 1 0 1.592 0v-3.528c2.017-.372 3.418-2.069 3.424-4.103 0-.061.008-.122-.005-.182L45.317.6c-.08-.366-.396-.6-.77-.6H5.48c-.374 0-.698.234-.778.6L.456 20.12a.7.7 0 0 0-.018.162M4.63 22.93c-1.157 0-2.14-.85-2.476-1.805h4.952c-.337.956-1.32 1.805-2.476 1.805m6.794 0c-1.156 0-2.14-.85-2.476-1.805H13.9c-.337.956-1.32 1.805-2.476 1.805m6.794 0c-1.156 0-2.139-.85-2.476-1.805h4.952c-.337.956-1.32 1.805-2.476 1.805m6.794 0c-1.156 0-2.139-.85-2.476-1.805h4.952c-.337.956-1.32 1.805-2.476 1.805m4.14-21.338h3.623l1.56 17.94h-5.183zm2.654 21.338c-1.156 0-2.139-.85-2.476-1.805h4.952c-.337.956-1.32 1.805-2.476 1.805m6.794 0c-1.156 0-2.139-.85-2.476-1.805h4.953c-.338.956-1.32 1.805-2.477 1.805m6.794 0c-1.156 0-2.139-.85-2.476-1.805h4.953c-.337.956-1.32 1.805-2.477 1.805m-1.49-21.338 3.9 17.94h-5.108l-2.34-17.94zm-5.154 0 2.34 17.94h-5.157l-1.56-17.94zm-11.19 17.94h-5.202V1.593h5.202zm-6.794 0H15.69l1.56-17.94h3.516zm-6.675 0H8.935l2.34-17.94h4.377zm-7.97-17.94h3.547l-2.34 17.94H2.222z"/><path fill="#6B5555" d="M40.3 25.478H26.712c-.44 0-.85.303-.85.743v9.448h-.849a.796.796 0 1 0 0 1.592h16.985a.796.796 0 1 0 0-1.592h-.955V26.22c0-.44-.303-.743-.743-.743m-12.845 10.19V27.07H39.45v8.599zM17.37 35.191a2.5 2.5 0 0 0-2.495 2.495 2.5 2.5 0 0 0 2.495 2.495 2.5 2.5 0 0 0 2.494-2.495 2.5 2.5 0 0 0-2.494-2.495m0 3.397a.903.903 0 0 1 0-1.805.903.903 0 0 1 0 1.805"/><path fill="#6B5555" d="M48.792 48.408h-2.654V31.316a.796.796 0 1 0-1.592 0v17.092H22.36V26.22c0-.44-.303-.743-.743-.743H8.028c-.44 0-.85.303-.85.743v22.187H5.375v-3.504a.796.796 0 1 0-1.592 0v3.504H1.234a.796.796 0 1 0 0 1.592h47.558a.796.796 0 1 0 0-1.592m-40.02 0V27.07h11.995v21.338z"/></g><defs><clipPath id="a"><path fill="#fff" d="M0 0h50v50H0z"/></clipPath></defs></svg>
